images/used-by/woothemes.svg

<?xml version="1.0" standalone="no"?><!DOCTYPE svg PUBLIC "-//W3C//DTD SVG 1.1//EN" "http://www.w3.org/Graphics/SVG/1.1/DTD/svg11.dtd"><svg width="100%" height="100%" viewBox="0 0 340 86" version="1.1" xmlns="http://www.w3.org/2000/svg" xmlns:xlink="http://www.w3.org/1999/xlink" xml:space="preserve" style="fill-rule:evenodd;clip-rule:evenodd;stroke-linejoin:round;stroke-miterlimit:1.41421;"><clipPath id="_clip1"><rect id="Artboard - woothemes" x="0" y="0" width="340" height="85.2"/></clipPath><g clip-path="url(#_clip1)"><g><path d="M88.044,71.184l5.737,14.05l-25.231,-14.05l-55.203,0c-7.376,0 -13.347,-5.971 -13.347,-13.347l0,-44.49c-0.058,-7.317 5.913,-13.347 13.289,-13.347l116.552,0c7.376,0 13.347,5.971 13.347,13.347l0,44.49c0,7.376 -5.971,13.347 -13.347,13.347l-41.797,0ZM7.142,12.118c0.82,-1.113 2.049,-1.698 3.688,-1.815c2.986,-0.234 4.683,1.171 5.093,4.215c1.815,12.235 3.805,22.596 5.913,31.084l12.82,-24.411c1.171,-2.224 2.634,-3.395 4.39,-3.512c2.576,-0.176 4.157,1.463 4.801,4.917c1.463,7.786 3.336,14.401 5.561,20.021c1.522,-14.869 4.098,-25.582 7.727,-32.197c0.878,-1.639 2.166,-2.459 3.864,-2.576c1.346,-0.117 2.575,0.293 3.688,1.171c1.112,0.878 1.697,1.99 1.814,3.337c0.059,1.054 -0.117,1.932 -0.585,2.81c-2.283,4.215 -4.156,11.298 -5.678,21.132c-1.464,9.542 -1.991,16.977 -1.64,22.304c0.118,1.464 -0.117,2.751 -0.702,3.864c-0.702,1.288 -1.756,1.99 -3.103,2.107c-1.522,0.117 -3.102,-0.585 -4.624,-2.166c-5.444,-5.561 -9.776,-13.874 -12.937,-24.938c-3.806,7.493 -6.615,13.113 -8.43,16.86c-3.454,6.615 -6.381,10.01 -8.84,10.186c-1.58,0.117 -2.927,-1.23 -4.097,-4.04c-2.986,-7.668 -6.206,-22.479 -9.659,-44.431c-0.235,-1.522 0.117,-2.869 0.936,-3.922ZM132.944,21.308c-2.108,-3.688 -5.21,-5.912 -9.367,-6.79c-1.112,-0.234 -2.166,-0.351 -3.161,-0.351c-5.62,0 -10.186,2.927 -13.757,8.78c-3.044,4.976 -4.566,10.479 -4.566,16.509c0,4.507 0.937,8.371 2.81,11.59c2.108,3.688 5.21,5.913 9.367,6.791c1.112,0.234 2.165,0.351 3.161,0.351c5.678,0 10.244,-2.927 13.756,-8.781c3.044,-5.034 4.567,-10.537 4.567,-16.566c0.058,-4.566 -0.937,-8.371 -2.81,-11.533ZM96.298,21.308c-2.108,-3.688 -5.269,-5.912 -9.366,-6.79c-1.113,-0.234 -2.166,-0.351 -3.162,-0.351c-5.619,0 -10.185,2.927 -13.756,8.78c-3.044,4.976 -4.566,10.479 -4.566,16.509c0,4.507 0.936,8.371 2.809,11.59c2.108,3.688 5.21,5.913 9.367,6.791c1.112,0.234 2.166,0.351 3.161,0.351c5.678,0 10.244,-2.927 13.757,-8.781c3.044,-5.034 4.566,-10.537 4.566,-16.566c0,-4.566 -0.937,-8.371 -2.81,-11.533ZM125.568,37.524c-0.82,3.863 -2.283,6.732 -4.449,8.664c-1.698,1.522 -3.279,2.166 -4.742,1.873c-1.405,-0.293 -2.576,-1.522 -3.454,-3.805c-0.702,-1.815 -1.054,-3.63 -1.054,-5.327c0,-1.464 0.117,-2.927 0.41,-4.274c0.527,-2.4 1.522,-4.741 3.103,-6.966c1.932,-2.868 3.98,-4.039 6.088,-3.629c1.405,0.292 2.576,1.522 3.454,3.805c0.702,1.815 1.053,3.629 1.053,5.327c0,1.522 -0.117,2.985 -0.409,4.332ZM88.863,37.524c-0.819,3.863 -2.283,6.732 -4.449,8.664c-1.697,1.522 -3.278,2.166 -4.741,1.873c-1.405,-0.293 -2.576,-1.522 -3.454,-3.805c-0.703,-1.815 -1.054,-3.63 -1.054,-5.327c0,-1.464 0.117,-2.927 0.41,-4.274c0.527,-2.4 1.522,-4.741 3.103,-6.966c1.931,-2.868 3.98,-4.039 6.088,-3.629c1.405,0.292 2.575,1.522 3.453,3.805c0.703,1.815 1.054,3.629 1.054,5.327c0.059,1.522 -0.117,2.985 -0.41,4.332Z" style="fill:#ebfcf7;"/><path d="M150.564,25.113l7.493,0l0,31.436l11.123,0l0,-31.436l7.61,0l0,-9.307l-26.226,0l0,9.307ZM198.859,30.909l-9.776,0l0,-15.103l-11.005,0l0,40.743l11.005,0l0,-16.918l9.776,0l0,16.918l11.006,0l0,-40.743l-11.006,0l0,15.103ZM225.67,40.451l9.776,0l0,-8.43l-9.776,0l0,-7.551l11.24,0l0,-8.664l-22.245,0l0,40.743l22.303,0l0,-8.664l-11.356,0l0,-7.434l0.058,0ZM267.116,15.806l-2.166,9.132c-0.585,2.341 -1.054,4.742 -1.58,7.2l-1.171,6.322c-1.112,-6.322 -2.693,-13.873 -4.683,-22.654l-13.933,0l-5.21,40.743l10.42,0l2.81,-28.04l7.142,28.04l7.435,0l6.849,-27.982l2.927,27.982l10.888,0l-5.503,-40.743l-14.225,0l0,0ZM300.952,40.451l9.776,0l0,-8.43l-9.776,0l0,-7.551l11.24,0l0,-8.664l-22.245,0l0,40.743l22.303,0l0,-8.664l-11.357,0l0,-7.434l0.059,0ZM336.72,37.465c-2.225,-2.283 -4.449,-4.039 -6.615,-5.327c-3.63,-2.107 -5.503,-4.039 -5.503,-5.795c0,-0.995 0.41,-1.756 1.171,-2.283c0.761,-0.586 1.873,-0.82 3.219,-0.82c2.049,0 4.684,0.761 7.962,2.283l0,-9.132c-3.044,-1.112 -6.147,-1.698 -9.249,-1.698c-4.215,0 -7.611,1.113 -10.245,3.337c-2.634,2.225 -3.981,5.093 -3.981,8.605c0,2.576 0.879,4.918 2.576,7.025c1.698,2.108 4.449,4.391 8.254,6.791c1.581,0.995 2.693,1.873 3.337,2.576c0.644,0.702 0.937,1.463 0.937,2.283c0,1.053 -0.41,1.931 -1.171,2.575c-0.82,0.644 -1.873,0.937 -3.278,0.937c-2.401,0 -5.327,-0.878 -8.781,-2.576l0,9.484c3.044,1.229 6.088,1.814 9.132,1.814c4.507,0 8.195,-1.17 11.122,-3.454c2.927,-2.283 4.391,-5.21 4.391,-8.722c0.058,-2.985 -1.054,-5.62 -3.278,-7.903Z" style="fill:#ebfcf7;fill-rule:nonzero;"/></g></g></svg>

<?xml version="1.0" standalone="no"?>
<!DOCTYPE svg PUBLIC "-//W3C//DTD SVG 1.1//EN" "http://www.w3.org/Graphics/SVG/1.1/DTD/svg11.dtd">
<svg width="100%" height="100%" viewBox="0 0 340 86" version="1.1" xmlns="http://www.w3.org/2000/svg" xmlns:xlink="http://www.w3.org/1999/xlink" xml:space="preserve" style="fill-rule:evenodd;clip-rule:evenodd;stroke-linejoin:round;stroke-miterlimit:1.41421;">
    <g>
        <path d="M88.044,71.184L93.781,85.234L68.55,71.184L13.347,71.184C5.971,71.184 0,65.213 0,57.837L0,13.347C-0.058,6.03 5.913,0 13.289,0L129.841,0C137.217,0 143.188,5.971 143.188,13.347L143.188,57.837C143.188,65.213 137.217,71.184 129.841,71.184L88.044,71.184L88.044,71.184ZM7.142,12.118C7.962,11.005 9.191,10.42 10.83,10.303C13.816,10.069 15.513,11.474 15.923,14.518C17.738,26.753 19.728,37.114 21.836,45.602L34.656,21.191C35.827,18.967 37.29,17.796 39.046,17.679C41.622,17.503 43.203,19.142 43.847,22.596C45.31,30.382 47.183,36.997 49.408,42.617C50.93,27.748 53.506,17.035 57.135,10.42C58.013,8.781 59.301,7.961 60.999,7.844C62.345,7.727 63.574,8.137 64.687,9.015C65.799,9.893 66.384,11.005 66.501,12.352C66.56,13.406 66.384,14.284 65.916,15.162C63.633,19.377 61.76,26.46 60.238,36.294C58.774,45.836 58.247,53.271 58.598,58.598C58.716,60.062 58.481,61.349 57.896,62.462C57.194,63.75 56.14,64.452 54.793,64.569C53.271,64.686 51.691,63.984 50.169,62.403C44.725,56.842 40.393,48.529 37.232,37.465C33.426,44.958 30.617,50.578 28.802,54.325C25.348,60.94 22.421,64.335 19.962,64.511C18.382,64.628 17.035,63.281 15.865,60.471C12.879,52.803 9.659,37.992 6.206,16.04C5.971,14.518 6.323,13.171 7.142,12.118L7.142,12.118ZM132.944,21.308C130.836,17.62 127.734,15.396 123.577,14.518C122.465,14.284 121.411,14.167 120.416,14.167C114.796,14.167 110.23,17.094 106.659,22.947C103.615,27.923 102.093,33.426 102.093,39.456C102.093,43.963 103.03,47.827 104.903,51.046C107.011,54.734 110.113,56.959 114.27,57.837C115.382,58.071 116.435,58.188 117.431,58.188C123.109,58.188 127.675,55.261 131.187,49.407C134.231,44.373 135.754,38.87 135.754,32.841C135.812,28.275 134.817,24.47 132.944,21.308L132.944,21.308ZM96.298,21.308C94.19,17.62 91.029,15.396 86.932,14.518C85.819,14.284 84.766,14.167 83.77,14.167C78.151,14.167 73.585,17.094 70.014,22.947C66.97,27.923 65.448,33.426 65.448,39.456C65.448,43.963 66.384,47.827 68.257,51.046C70.365,54.734 73.467,56.959 77.624,57.837C78.736,58.071 79.79,58.188 80.785,58.188C86.463,58.188 91.029,55.261 94.542,49.407C97.586,44.373 99.108,38.87 99.108,32.841C99.108,28.275 98.171,24.47 96.298,21.308L96.298,21.308ZM125.568,37.524C124.748,41.387 123.285,44.256 121.119,46.188C119.421,47.71 117.84,48.354 116.377,48.061C114.972,47.768 113.801,46.539 112.923,44.256C112.221,42.441 111.869,40.626 111.869,38.929C111.869,37.465 111.986,36.002 112.279,34.655C112.806,32.255 113.801,29.914 115.382,27.689C117.314,24.821 119.362,23.65 121.47,24.06C122.875,24.352 124.046,25.582 124.924,27.865C125.626,29.68 125.977,31.494 125.977,33.192C125.977,34.714 125.86,36.177 125.568,37.524L125.568,37.524ZM88.863,37.524C88.044,41.387 86.58,44.256 84.414,46.188C82.717,47.71 81.136,48.354 79.673,48.061C78.268,47.768 77.097,46.539 76.219,44.256C75.516,42.441 75.165,40.626 75.165,38.929C75.165,37.465 75.282,36.002 75.575,34.655C76.102,32.255 77.097,29.914 78.678,27.689C80.609,24.821 82.658,23.65 84.766,24.06C86.171,24.352 87.341,25.582 88.219,27.865C88.922,29.68 89.273,31.494 89.273,33.192C89.332,34.714 89.156,36.177 88.863,37.524Z" style="fill:black;"/>
        <path d="M150.564,25.113L158.057,25.113L158.057,56.549L169.18,56.549L169.18,25.113L176.79,25.113L176.79,15.806L150.564,15.806L150.564,25.113ZM198.859,30.909L189.083,30.909L189.083,15.806L178.078,15.806L178.078,56.549L189.083,56.549L189.083,39.631L198.859,39.631L198.859,56.549L209.865,56.549L209.865,15.806L198.859,15.806L198.859,30.909ZM225.67,40.451L235.446,40.451L235.446,32.021L225.67,32.021L225.67,24.47L236.91,24.47L236.91,15.806L214.665,15.806L214.665,56.549L236.968,56.549L236.968,47.885L225.612,47.885L225.612,40.451L225.67,40.451ZM267.116,15.806L264.95,24.938C264.365,27.279 263.896,29.68 263.37,32.138L262.199,38.46C261.087,32.138 259.506,24.587 257.516,15.806L243.583,15.806L238.373,56.549L248.793,56.549L251.603,28.509L258.745,56.549L266.18,56.549L273.029,28.567L275.956,56.549L286.844,56.549L281.341,15.806L267.116,15.806L267.116,15.806ZM300.952,40.451L310.728,40.451L310.728,32.021L300.952,32.021L300.952,24.47L312.192,24.47L312.192,15.806L289.947,15.806L289.947,56.549L312.25,56.549L312.25,47.885L300.893,47.885L300.893,40.451L300.952,40.451ZM336.72,37.465C334.495,35.182 332.271,33.426 330.105,32.138C326.475,30.031 324.602,28.099 324.602,26.343C324.602,25.348 325.012,24.587 325.773,24.06C326.534,23.474 327.646,23.24 328.992,23.24C331.041,23.24 333.676,24.001 336.954,25.523L336.954,16.391C333.91,15.279 330.807,14.693 327.705,14.693C323.49,14.693 320.094,15.806 317.46,18.03C314.826,20.255 313.479,23.123 313.479,26.635C313.479,29.211 314.358,31.553 316.055,33.66C317.753,35.768 320.504,38.051 324.309,40.451C325.89,41.446 327.002,42.324 327.646,43.027C328.29,43.729 328.583,44.49 328.583,45.31C328.583,46.363 328.173,47.241 327.412,47.885C326.592,48.529 325.539,48.822 324.134,48.822C321.733,48.822 318.807,47.944 315.353,46.246L315.353,55.73C318.397,56.959 321.441,57.544 324.485,57.544C328.992,57.544 332.68,56.374 335.607,54.09C338.534,51.807 339.998,48.88 339.998,45.368C340.056,42.383 338.944,39.748 336.72,37.465L336.72,37.465Z" style="fill:black;fill-rule:nonzero;"/>
    </g>
</svg>
